X:41
T: AN DER SAALE HELLEM STRANDE
N: B0527A
O: Europa, Mitteleuropa, Deutschland
R: Wander - Lied
M: 3/4
L: 1/16
K: G
G3A | B4B4A2G2 | A3BA4
G2A2 | B3cd6F2 | G4z4
e3d | d2^c2=c2D2F2A2 | G3AB4
e3d | d2^c2=c2D2F2A2 | G3AB4
G3A | B3dd4c2F2 | G4z4

@@@ Tune index: 2259
